!!!COM: Palestrina, Giovanni Perluigi da
!!!OPR: Emendemus in melius
!!!OTL: Benedictus
**kern	**kern	**kern
*Ibass	*Itenor	*Icalto
!Bassus	!Tenor	!Altus
*clefF4	*clefGv2	*clefG2
*k[b-]	*k[b-]	*k[b-]
*G:dor	*G:dor	*G:dor
*M4/2	*M4/2	*M4/2
=1	=1	=1
1.G	0r	0r
2G	.	.
=2	=2	=2
1F	1r	0r
2.D	[1d	.
4E	.	.
=3	=3	=3
2F	2d]	0r
2G	2d	.
2E	1c	.
[2F	.	.
=4	=4	=4
4F]	2A	1r
4E	.	.
4D	2.B-	.
4C	.	.
1D	.	[1d
.	4A	.
.	[2A	.
=5	=5	=5
1BB-	2A]	2d]
.	2G	2d
1AA	1A	1c
=6	=6	=6
1D	2.F	2.A
.	4G	4B-
2C	2A	2c
2BB-	2B-	2d
=7	=7	=7
2E-	2G	2B-
2C	2.A	2.c
1E-	.	.
.	4G	4B-
.	[2G	4B-
.	.	8A
.	.	8G
=8	=8	=8
1D	2G]	1A
.	2F#	.
4GG	2G	1G
4AA	.	.
4BB-	4D	.
4C	4E	.
=9	=9	=9
4D	4F	0r
4E	4G	.
4F	4A	.
4D	4B-	.
2E	2.c	.
2F	.	.
.	4A	.
=10	=10	=10
2.G	4B-	1.g
.	4c	.
.	1d	.
4F	.	.
1E	.	.
.	2c#	2g
=11	=11	=11
2.D	1d	1f
4C	.	.
2BB-	2r	2.d
[2B-	[2d	.
.	.	4e
=12	=12	=12
2B-]	2d]	2f
2G	2d	2g
4A	1c	2e
4G	.	.
4F	.	[2f
4E	.	.
=13	=13	=13
1F	2.A	4f]
.	.	4e
.	.	4c
.	4B-	4d
1r	2c	2e
.	2d	2f
=14	=14	=14
0r	2B-	2d
.	2.c	4e
.	.	4d
.	.	4e
.	4B-	4f
.	4B-	[2g
.	8A	.
.	8G	.
=15	=15	=15
1.D	1A	2g]
.	.	4f
.	.	4e
.	2r	1f
2D	[2A	.
=16	=16	=16
1C	4A]	1e
.	4G	.
.	2.c	.
2.AA	.	2.c
.	4B-	.
.	2A	.
4BB-	.	4d
=17	=17	=17
2C	2G	2e
2D	4F	2.f
.	4E	.
1BB-	4D	.
.	4E	4e
.	4F	[2d
.	4D	.
=18	=18	=18
1AA	1E	2d]
.	.	2c#
2r	2D	[1d
2D	2F	.
=19	=19	=19
2.G	2.B-	1d]
4G	4B-	.
2F	2A	1r
[2E-	[2G	.
=20	=20	=20
2E-]	2G]	1B-
2D	2F	.
2C	2G	2.e-
2C	2A	.
.	.	4e-
=21	=21	=21
2BB-	4B-	2d
.	4A	.
2BB-	4G	1d
.	4F	.
2.E-	1G	.
.	.	2c
4D	.	.
=22	=22	=22
1D	1r	2B-
.	.	2.A
2.C	2r	.
.	.	4G
.	2G	[2G
4BB-	.	.
=23	=23	=23
2AA	2.c	2G]
2AA	.	2F#
.	4c	.
1GG	2B-	2G
.	[2B-	2d
=24	=24	=24
1D	2B-]	2.f
.	2A	.
.	.	4f
2.G	4G	2e-
.	4A	.
.	4B-	[2d
4G	4G	.
=25	=25	=25
2F	2A	2d]
1E-	2G	2c
.	2G	4B-
.	.	4c
2D	2F	4d
.	.	8c
.	.	8d
=26	=26	=26
2C	2G	2e-
2BB-	1B-	2d
1F	.	1c
.	2A	.
=27	=27	=27
1BB-	1B-	2r
.	.	2d
1D	2r	2.f
.	2A	.
.	.	4f
=28	=28	=28
2.G	2.B-	2e-
.	.	1d
4G	4B-	.
2F	2A	.
[2E-	[2G	2c
=29	=29	=29
2E-]	2G]	4B-
.	.	4c
2D	2F	4d
.	.	8c
.	.	8d
2C	4G	2e
.	4A	.
2BB-	4B-	2d
.	4G	.
=30	=30	=30
1C	2A	2.c
.	1G	.
.	.	4B-
2.D	.	2A
.	2F#	2A
4D	.	.
=31	=31	=31
0GG	0G	0G
*-	*-	*-
!! Hosanna
**kern	**kern	**kern	**kern
*Ibass	*Itenor	*Icalto	*Icant
!Bassus	!Tenor	!Altus	!Cantus
*clefF4	*clefGv2	*clefG2	*clefG2
*k[b-]	*k[b-]	*k[b-]	*k[b-]
*G:dor	*G:dor	*G:dor	*G:dor
*M4/2	*M4/2	*M4/2	*M4/2
=32	=32	=32	=32
0r	1r	1B-	0r
.	1F	2c	.
.	.	2c	.
=33	=33	=33	=33
0r	2G	2e-	1r
.	2G	1d	.
.	2B-	.	1f
.	2A	2c	.
=34	=34	=34	=34
0r	4G	4B-	2g
.	4A	4c	.
.	4B-	4d	2g
.	4c	4e	.
.	2d	2f	[1b-
.	2e-	[2g	.
=35	=35	=35	=35
0r	1d	2g]	2b-]
.	.	2f	2a
.	2.G	[1g	4g
.	.	.	4a
.	.	.	4b-
.	4A	.	4cc
=36	=36	=36	=36
1r	2B-	2g]	4dd
.	.	.	4cc
.	2d	4f	1b-
.	.	4e	.
1F	1c	1f	.
.	.	.	2a
=37	=37	=37	=37
2G	2B-	2d	0b-
2G	2B-	2g	.
2.B-	2d	4f	.
.	.	4e	.
.	2d	4d	.
4A	.	4c	.
=38	=38	=38	=38
2G	2e-	2B-	1r
2F	2d	2A	.
2E-	4c	2G	2r
.	4B-	.	.
4D	[2d	2F	2b-
4C	.	.	.
=39	=39	=39	=39
4BB-	4d]	1B-	2dd
4C	4c	.	.
2D	1B-	.	2dd
1C	.	1c	1ee-
.	2A	.	.
=40	=40	=40	=40
1BB-	2B-	2r	1dd
.	2B-	2d	.
1r	2A	2e	2cc
.	2G	[2g	2b-
=41	=41	=41	=41
0r	2.d	2g]	2a
.	.	2f	2.dd
.	4c	.	.
.	4B-	1d	.
.	4A	.	4cc
.	[2G	.	[2b-
=42	=42	=42	=42
1BB-	4G]	1d	4b-]
.	4F	.	4a
.	2B-	.	2g
2D	2A	1d	2f
2D	2F	.	[2a
=43	=43	=43	=43
1E-	1G	2r	4a]
.	.	.	4g
.	.	2B-	1g
1D	2A	2d	.
.	2A	2d	2f#
=44	=44	=44	=44
0C	0c	2.e-	[0g
.	.	4c	.
.	.	1e-	.
=45	=45	=45	=45
0GG	0B	0d	0g]
==	==	==	==
*-	*-	*-	*-
!!!CDT: 1525/^1526/-1594/2/2
!!!OCY: Italia
!!!AGN: Mass (Parody)
!!!AST: renaissance, vocal
!!!ASW: Antiphon
!!!PWK: Masses, Book 7
!!!RNB: Cadence finals: D
!!!YOR: Le Opere Complete, v. 23, p. 61
!!!YOO: Rome, Italy: Fratelli Scalera
!!!END: 1992//
!!!EED: John Miller
!!!YEC: Copyright 2000, John Miller
!!!YEN: United States of America
!!!YEM: Rights to all derivative electronic formats reserved.
!!!YEM: Refer to licensing agreement for further details.
!!!YEM: This file must be accompanied by the licensing agreement.
!!!YEM: A copy of the licensing agreement may be found at http://www.music-cog.ohio-state.edu/HumdrumDatabases/Palestrina/license.txt
!!!EMD: converted to Humdrum by Bret Aarden
